assets/icons/24px/stroke/pin-24px.svg

<svg width="24" height="24" viewBox="0 0 24 24" fill="none" xmlns="http://www.w3.org/2000/svg">
<g clip-path="url(#clip0_878_22759)">
<path fill-rule="evenodd" clip-rule="evenodd" d="M4.13644 4.93466L4.93466 4.13644C5.45022 3.62086 5.88532 3.18574 6.26619 2.86913C6.65933 2.54233 7.09393 2.25456 7.62496 2.14516C8.34606 1.99661 9.09661 2.1184 9.73373 2.48737C10.2029 2.75908 10.5242 3.16951 10.7938 3.60387C11.055 4.02466 11.3302 4.57504 11.6563 5.22719L11.6771 5.26888C12.0067 5.9281 12.1079 6.11747 12.2338 6.2709C12.3522 6.4152 12.4902 6.54221 12.6439 6.64824C12.8072 6.76096 13.0043 6.84602 13.6886 7.11975L13.9712 7.23277C14.9606 7.6285 15.7893 7.95995 16.4039 8.29853C17.0386 8.64817 17.6241 9.09816 17.9096 9.82241C18.037 10.1454 18.1073 10.488 18.1175 10.835C18.1403 11.6132 17.7795 12.2574 17.3338 12.8288C16.9023 13.3821 16.2711 14.0132 15.5176 14.7667L14.7667 15.5176C14.0132 16.2711 13.3822 16.9023 12.8288 17.3338C12.2575 17.7794 11.6132 18.1403 10.835 18.1175C10.488 18.1073 10.1454 18.037 9.82242 17.9096C9.09817 17.624 8.64817 17.0386 8.29853 16.4039C7.95996 15.7893 7.62852 14.9606 7.23279 13.9712L7.11975 13.6886C6.84603 13.0043 6.76097 12.8072 6.64824 12.6438C6.54222 12.4902 6.4152 12.3522 6.2709 12.2337C6.11748 12.1078 5.9281 12.0067 5.26889 11.6771L5.22721 11.6563C4.57506 11.3302 4.02467 11.055 3.60387 10.7938C3.16952 10.5242 2.75909 10.2029 2.48737 9.73373C2.11841 9.09661 1.99661 8.34606 2.14517 7.62495C2.25457 7.09392 2.54234 6.65933 2.86914 6.26619C3.18574 5.88531 3.62086 5.45022 4.13644 4.93466ZM4.40715 7.54467C4.16006 7.84192 4.11554 7.97262 4.10403 8.02851C4.05451 8.26888 4.09511 8.51906 4.2181 8.73144C4.2467 8.78082 4.33026 8.89073 4.65867 9.09459C4.9917 9.30132 5.45835 9.53577 6.16332 9.88825C6.19227 9.90273 6.22085 9.917 6.24907 9.93109C6.78541 10.199 7.19083 10.4014 7.53964 10.6877C7.82825 10.9245 8.08227 11.2006 8.29433 11.5079C8.55062 11.8793 8.71873 12.3001 8.94113 12.8568C8.95283 12.8861 8.96469 12.9158 8.97671 12.9458L9.06543 13.1676C9.49191 14.2338 9.7786 14.9457 10.0503 15.4389C10.3179 15.9246 10.4775 16.0181 10.5561 16.0491C10.6637 16.0915 10.7779 16.1149 10.8936 16.1183C10.978 16.1208 11.1616 16.0978 11.5988 15.7567C12.0429 15.4104 12.5868 14.8691 13.3988 14.0571L14.0571 13.3988C14.8691 12.5868 15.4104 12.0429 15.7568 11.5988C16.0978 11.1616 16.1208 10.978 16.1183 10.8936C16.115 10.7779 16.0915 10.6637 16.0491 10.5561C16.0181 10.4775 15.9246 10.3179 15.4389 10.0503C14.9457 9.7786 14.2339 9.4919 13.1676 9.06542L12.9458 8.9767C12.9158 8.96468 12.8861 8.95282 12.8568 8.94112C12.3001 8.71872 11.8793 8.55061 11.5079 8.29432C11.2006 8.08227 10.9245 7.82824 10.6877 7.53964C10.4015 7.19083 10.199 6.78542 9.93111 6.24908C9.91701 6.22086 9.90274 6.19227 9.88826 6.16331C9.53577 5.45835 9.30133 4.9917 9.0946 4.65867C8.89073 4.33026 8.78082 4.24669 8.73144 4.21809C8.51906 4.09511 8.26888 4.05451 8.02852 4.10403C7.97262 4.11554 7.84192 4.16006 7.54467 4.40715C7.24324 4.65772 6.87325 5.02628 6.31593 5.58361L5.58361 6.31593C5.02629 6.87325 4.65772 7.24323 4.40715 7.54467Z" fill="white"/>
<path fill-rule="evenodd" clip-rule="evenodd" d="M14.3432 14.3432C14.7337 13.9527 15.3668 13.9527 15.7574 14.3432L20.7071 19.2929C21.0976 19.6835 21.0976 20.3166 20.7071 20.7071C20.3166 21.0977 19.6834 21.0977 19.2929 20.7071L14.3432 15.7574C13.9526 15.3669 13.9526 14.7337 14.3432 14.3432Z" fill="white"/>
</g>
<defs>
<clipPath id="clip0_878_22759">
<rect width="24" height="24" fill="white"/>
</clipPath>
</defs>
</svg>

<svg width="24" height="24" fill="none" xmlns="http://www.w3.org/2000/svg"><g clip-path="url(#clip0_878_22759)" fill-rule="evenodd" clip-rule="evenodd" fill="#fff"><path d="M4.136 4.935l.799-.799c.515-.515.95-.95 1.331-1.267.393-.327.828-.614 1.359-.724a3 3 0 0 1 2.109.342c.469.272.79.683 1.06 1.117.261.42.536.971.862 1.623l.021.042c.33.66.43.848.557 1.002.118.144.256.271.41.377.163.113.36.198 1.045.472l.282.113c.99.396 1.818.727 2.433 1.066.635.35 1.22.8 1.506 1.523a3 3 0 0 1 .207 1.013c.023.778-.338 1.422-.783 1.994-.432.553-1.063 1.184-1.816 1.938l-.751.75c-.754.754-1.385 1.385-1.938 1.817-.572.445-1.216.806-1.994.784a3 3 0 0 1-1.013-.208c-.724-.286-1.174-.871-1.523-1.506-.339-.615-.67-1.443-1.066-2.433l-.113-.282c-.274-.685-.359-.882-.472-1.045a2.003 2.003 0 0 0-.377-.41c-.154-.126-.343-.227-1.002-.557l-.042-.02c-.652-.327-1.202-.602-1.623-.863-.434-.27-.845-.591-1.117-1.06a3 3 0 0 1-.342-2.109c.11-.531.397-.966.724-1.359.317-.38.752-.816 1.267-1.331zm.271 2.61c-.247.297-.291.428-.303.484a1 1 0 0 0 .114.702c.029.05.112.16.44.364.334.206.8.44 1.505.793l.086.043c.536.268.942.47 1.29.757.29.236.543.513.755.82.257.371.425.792.647 1.349l.036.089.088.222c.427 1.066.714 1.778.985 2.27.268.487.427.58.506.611a1 1 0 0 0 .338.07c.084.002.268-.021.705-.362.444-.347.988-.888 1.8-1.7l.658-.658c.812-.812 1.353-1.356 1.7-1.8.34-.437.364-.621.361-.705a.998.998 0 0 0-.069-.338c-.03-.079-.124-.238-.61-.506-.493-.271-1.205-.558-2.271-.985l-.222-.088-.09-.036c-.556-.222-.977-.39-1.348-.647a3.999 3.999 0 0 1-.82-.754c-.287-.35-.489-.755-.757-1.29l-.043-.087c-.352-.705-.587-1.171-.793-1.504-.204-.329-.314-.412-.364-.44a1 1 0 0 0-.702-.115c-.056.012-.187.056-.484.303-.302.25-.672.62-1.23 1.177l-.731.732c-.558.557-.926.927-1.177 1.229z"/><path d="M14.343 14.343a1 1 0 0 1 1.414 0l4.95 4.95a1 1 0 0 1-1.414 1.414l-4.95-4.95a1 1 0 0 1 0-1.414z"/></g><defs><clipPath id="clip0_878_22759"><path fill="#fff" d="M0 0H24V24H0z"/></clipPath></defs></svg>
